src/assets/filled/EyeSlash.svg

<svg width="24" height="24" viewBox="0 0 24 24"  xmlns="http://www.w3.org/2000/svg">
<path d="M21.2699 9.17981C20.9799 8.71981 20.6699 8.28981 20.3499 7.88981C19.9799 7.41981 19.2799 7.37981 18.8599 7.79981L15.8599 10.7998C16.0799 11.4598 16.1199 12.2198 15.9199 13.0098C15.5699 14.4198 14.4299 15.5598 13.0199 15.9098C12.2299 16.1098 11.4699 16.0698 10.8099 15.8498C10.8099 15.8498 9.37995 17.2798 8.34995 18.3098C7.84995 18.8098 8.00995 19.6898 8.67995 19.9498C9.74995 20.3598 10.8599 20.5698 11.9999 20.5698C13.7799 20.5698 15.5099 20.0498 17.0899 19.0798C18.6999 18.0798 20.1499 16.6098 21.3199 14.7398C22.2699 13.2298 22.2199 10.6898 21.2699 9.17981Z" />
<path d="M14.0199 9.98014L9.97989 14.0201C9.46989 13.5001 9.13989 12.7801 9.13989 12.0001C9.13989 10.4301 10.4199 9.14014 11.9999 9.14014C12.7799 9.14014 13.4999 9.47014 14.0199 9.98014Z" />
<path d="M18.25 5.75018L14.86 9.14018C14.13 8.40018 13.12 7.96018 12 7.96018C9.76 7.96018 7.96 9.77018 7.96 12.0002C7.96 13.1202 8.41 14.1302 9.14 14.8602L5.76 18.2502H5.75C4.64 17.3502 3.62 16.2002 2.75 14.8402C1.75 13.2702 1.75 10.7202 2.75 9.15018C3.91 7.33017 5.33 5.90018 6.91 4.92018C8.49 3.96018 10.22 3.43018 12 3.43018C14.23 3.43018 16.39 4.25018 18.25 5.75018Z" />
<path d="M14.8601 12.0001C14.8601 13.5701 13.5801 14.8601 12.0001 14.8601C11.9401 14.8601 11.8901 14.8601 11.8301 14.8401L14.8401 11.8301C14.8601 11.8901 14.8601 11.9401 14.8601 12.0001Z" />
<path d="M21.7699 2.22988C21.4699 1.92988 20.9799 1.92988 20.6799 2.22988L2.22988 20.6899C1.92988 20.9899 1.92988 21.4799 2.22988 21.7799C2.37988 21.9199 2.56988 21.9999 2.76988 21.9999C2.96988 21.9999 3.15988 21.9199 3.30988 21.7699L21.7699 3.30988C22.0799 3.00988 22.0799 2.52988 21.7699 2.22988Z" />
</svg>

<?xml version="1.0" encoding="UTF-8"?>
<svg width="24" height="24" viewBox="0 0 24 24" xmlns="http://www.w3.org/2000/svg">
 <path d="m21.27 9.1798c-0.29-0.46-0.6-0.89-0.92-1.29-0.37-0.47-1.07-0.51-1.49-0.09l-3 3c0.22 0.66 0.26 1.42 0.06 2.21-0.35 1.41-1.49 2.55-2.9 2.9-0.79 0.2-1.55 0.16-2.21-0.06 0 0-1.43 1.43-2.46 2.46-0.5 0.5-0.34 1.38 0.33 1.64 1.07 0.41 2.18 0.62 3.32 0.62 1.78 0 3.51-0.52 5.09-1.49 1.61-1 3.06-2.47 4.23-4.34 0.95-1.51 0.9-4.05-0.05-5.56z"/>
 <path d="m14.02 9.9801-4.04 4.04c-0.51-0.52-0.84-1.24-0.84-2.02 0-1.57 1.28-2.86 2.86-2.86 0.78 0 1.5 0.33 2.02 0.84z"/>
 <path d="m18.25 5.7502-3.39 3.39c-0.73-0.74-1.74-1.18-2.86-1.18-2.24 0-4.04 1.81-4.04 4.04 0 1.12 0.45 2.13 1.18 2.86l-3.38 3.39h-0.01c-1.11-0.9-2.13-2.05-3-3.41-1-1.57-1-4.12 0-5.69 1.16-1.82 2.58-3.25 4.16-4.23 1.58-0.96 3.31-1.49 5.09-1.49 2.23 0 4.39 0.82 6.25 2.32z"/>
 <path d="m14.86 12c0 1.57-1.28 2.86-2.86 2.86-0.06 0-0.11 0-0.17-0.02l3.01-3.01c0.02 0.06 0.02 0.11 0.02 0.17z"/>
 <path d="m21.77 2.2299c-0.3-0.3-0.79-0.3-1.09 0l-18.45 18.46c-0.3 0.3-0.3 0.79 0 1.09 0.15 0.14 0.34 0.22 0.54 0.22s0.39-0.08 0.54-0.23l18.46-18.46c0.31-0.3 0.31-0.78 0-1.08z"/>
</svg>
